!!!COM: Palestrina, Giovanni Perluigi da
!!!OPR: Missa Aspice Domine
!!!OMD: Credo
!!!OTL: First Section
**kern	**kern	**kern	**kern	**kern
*Ibass	*Itenor	*Itenor	*Icalto	*Icant
!Bassus	!Tenor 2	!Tenor 1	!Altus	!Cantus
*clefF4	*clefGv2	*clefGv2	*clefG2	*clefG2
*k[]	*k[]	*k[]	*k[]	*k[]
*D:dor	*D:dor	*D:dor	*D:dor	*D:dor
*M4/2	*M4/2	*M4/2	*M4/2	*M4/2
=1	=1	=1	=1	=1
0r	1r	1r	1r	0a
.	[1f#	[1d	[1a	.
=2	=2	=2	=2	=2
0r	1f#]	1d]	1a]	0dd
.	1g	1G	1b-	.
=3	=3	=3	=3	=3
0r	2e	2A	1a	1cc
.	2.a	2.f	.	.
.	.	.	4d	[1ff
.	4g	4e	4e	.
.	4f	[2d	4f	.
.	4e	.	4g	.
=4	=4	=4	=4	=4
0r	2d	2d]	2a	2ff]
.	2e	2c#	2a	2ee
.	1f	1d	1a	1dd
=5	=5	=5	=5	=5
2r	2e	2A	2a	2cc#
2A	2c#	2a	2e	2ee
2A	2c#	2a	2e	2ee
2A	2c#	2a	2a	2ee
=6	=6	=6	=6	=6
1d	4d	2f	2.a	1ff
.	4e	.	.	.
.	4f	2d	.	.
.	4g	.	4b	.
2.A	1a	2e	2cc	2ee
.	.	[2f	[2a	2cc
4G	.	.	.	.
=7	=7	=7	=7	=7
2F	2A	4f]	2a]	1dd
.	.	4e	.	.
2G	2B-	2.d	2g	.
1E	1G	.	1g	1ee
.	.	8c	.	.
.	.	8B	.	.
.	.	2c#	.	.
=8	=8	=8	=8	=8
0D	2A	1d	1f#	0a
.	1d	.	.	.
.	.	1r	2r	.
.	2d	.	[2a	.
=9	=9	=9	=9	=9
2r	2f	1r	2a]	0r
1A	2f	.	2a	.
.	1e	2r	2.cc	.
2A	.	[2e	.	.
.	.	.	4b	.
=10	=10	=10	=10	=10
2.c	2r	2e]	2a	0r
.	1c	2e	2g	.
4B	.	.	.	.
2A	.	2f	2a	.
2G	2B	2e	[2b	.
=11	=11	=11	=11	=11
2F	2.c	1A	4b]	0r
.	.	.	4a	.
2F	.	.	1a	.
.	4d	.	.	.
1E	[1e	2B	.	.
.	.	2B	2g#	.
=12	=12	=12	=12	=12
0A	1e]	2c	0a	2r
.	.	1c	.	1ee
.	2r	.	.	.
.	[2a	2c	.	2ee
=13	=13	=13	=13	=13
0r	2a]	2.d	1r	2.ff
.	2a	.	.	.
.	.	4c#	.	4ee
.	2.f	4d	2r	2dd
.	.	4e	.	.
.	.	[2f	[2a	2cc
.	4e	.	.	.
=14	=14	=14	=14	=14
0r	2d	2f]	2a]	2dd
.	2c	2e	2a	2.ee
.	2B-	2f	2b-	.
.	.	.	.	4dd
.	2B-	4e	2g	[2dd
.	.	4d	.	.
=15	=15	=15	=15	=15
0r	1A	2e	2a	2dd]
.	.	2e	2a	2cc#
.	2r	1d	1f	1dd
.	[2d	.	.	.
=16	=16	=16	=16	=16
1.d	4d]	1r	1.a	1.ff
.	4e	.	.	.
.	4f	.	.	.
.	4g	.	.	.
.	2a	2r	.	.
2d	2f	[2d	2a	2ff
=17	=17	=17	=17	=17
1G	2.g	2d]	1b	1dd
.	.	2d	.	.
.	8f	.	.	.
.	8e	.	.	.
1G	4d	2g	1b	1dd
.	4c	.	.	.
.	2d	2g	.	.
=18	=18	=18	=18	=18
1.c	2c	2.e	1.cc	1.ee
.	1e	.	.	.
.	.	4f	.	.
.	.	2g	.	.
2c	2e	2c	2cc	2ee
=19	=19	=19	=19	=19
1F	1f	1c	1a	1cc
1F	1a	2r	1cc	[1ff
.	.	2c	.	.
=20	=20	=20	=20	=20
0c	1g	4c	0cc	2ff]
.	.	4d	.	.
.	.	4e	.	2ee
.	.	4f	.	.
.	1e	2g	.	[1ee
.	.	[2a	.	.
=21	=21	=21	=21	=21
0d	0f	4a]	0a	2ee]
.	.	4g	.	.
.	.	4f	.	4dd
.	.	4e	.	4cc#
.	.	4d	.	1dd
.	.	4c#	.	.
.	.	2d	.	.
=22	=22	=22	=22	=22
0A	1e	1c#	0a	0ee
.	1e	2r	.	.
.	.	[2e	.	.
=23	=23	=23	=23	=23
1A	2c	2e]	2r	0r
.	2A	2c	2a	.
2F	2.f	2A	2a	.
2D	.	[2d	2a	.
.	4e	.	.	.
=24	=24	=24	=24	=24
1G	2d	4d]	1g	0r
.	.	4B	.	.
.	2.c	2e	.	.
1G	.	1d	1g	.
.	8B	.	.	.
.	8A	.	.	.
.	2B	.	.	.
=25	=25	=25	=25	=25
2.A	2.c	2.f	0r	0r
4G	4B	4e	.	.
2F	2A	2d	.	.
2E	2G	2c#	.	.
=26	=26	=26	=26	=26
[0D	0A	2.d	2r	1r
.	.	.	1a	.
.	.	4e	.	.
.	.	4f	.	2r
.	.	4e	.	.
.	.	4f	2d	[2dd
.	.	4g	.	.
=27	=27	=27	=27	=27
1D]	0r	1a	2.f	2dd]
.	.	.	.	2a
.	.	.	4g	.
1r	.	1r	2a	2cc
.	.	.	2b	2dd
=28	=28	=28	=28	=28
0r	2r	0r	2.cc	2.ee
.	1a	.	.	.
.	.	.	4b	4dd
.	.	.	4cc	4ee
.	.	.	4a	4cc
.	2d	.	[2b	[2dd
=29	=29	=29	=29	=29
0r	2f	1r	4b]	4dd]
.	.	.	4a	4cc
.	2f	.	2.a	4cc
.	.	.	.	8b
.	.	.	.	8a
.	1e	2r	.	1b
.	.	.	8g	.
.	.	.	8f#	.
.	.	[2e	2g#	.
=30	=30	=30	=30	=30
2r	2A	2e]	2a	[0a
1A	1c	2A	1e	.
.	.	2e	.	.
2D	2d	2f	2d	.
=31	=31	=31	=31	=31
2.A	2.e	4e	2c	1a]
.	.	4d	.	.
.	.	4c	2A	.
4B	4d	4B	.	.
2c	2e	2A	1a	1r
[2d	[2f	4d	.	.
.	.	4e	.	.
=32	=32	=32	=32	=32
4d]	4f]	4f	1.d	0r
4c	4e	4g	.	.
4B	4d	1a	.	.
4A	4c	.	.	.
2B	2d	.	.	.
2B	2d	2g#	2d	.
=33	=33	=33	=33	=33
1A	1e	2a	2c	2r
.	.	2a	2cc	2ee
1r	1r	2f	2a	2ff
.	.	2g	2b-	2dd
=34	=34	=34	=34	=34
2r	1r	1d	2.a	1ff
2d	.	.	.	.
.	.	.	4b	.
2e	2r	1A	1cc	1ee
2c	2e	.	.	.
=35	=35	=35	=35	=35
0d	2f	0r	0a	0dd
.	2d	.	.	.
.	1f	.	.	.
=36	=36	=36	=36	=36
0A	2e	2r	2r	2r
.	2c	2a	2cc	2ee
.	2d	2f	2a	2ff
.	2G	2g	2b-	2dd
=37	=37	=37	=37	=37
2r	2.d	4f	4a	1ff
.	.	4e	4g	.
2d	.	4f	4a	.
.	4d	4g	4b	.
2e	2A	2.a	[1cc	1ee
2c	[2a	.	.	.
.	.	4g	.	.
=38	=38	=38	=38	=38
1.d	2a]	2f#	2cc]	[0dd
.	1g	2g	2b	.
.	.	2a	1a	.
2d	2f#	2d	.	.
=39	=39	=39	=39	=39
1G	1g	2r	1b	1dd]
.	.	1d	.	.
1G	1g	.	1r	1b
.	.	[2e	.	.
=40	=40	=40	=40	=40
1A	1e	2e]	0r	1cc
.	.	1c	.	.
1F	1f	.	.	1a
.	.	[2d	.	.
=41	=41	=41	=41	=41
2G	1d	2d]	2r	1b
2G	.	2g	2b	.
2.A	2r	2e	[1cc	1r
.	2f	2a	.	.
4B	.	.	.	.
=42	=42	=42	=42	=42
2c	2e	2g	2cc]	1r
2F	2a	1f	2cc	.
1c	1g	.	1cc	2r
.	.	2e	.	[2cc
=43	=43	=43	=43	=43
0F	1f	2f	1a	2cc]
.	.	1c	.	2.ff
.	1a	.	1f	.
.	.	.	.	4ee
.	.	[2f	.	2dd
=44	=44	=44	=44	=44
0r	2a	4f]	2.a	2cc
.	.	4e	.	.
.	2f	2d	.	2.ff
.	.	.	4b	.
.	1g	1c	1cc	.
.	.	.	.	8ee
.	.	.	.	8dd
.	.	.	.	2ee
=45	=45	=45	=45	=45
2r	2f	2r	2a	1ff
1F	2c	1A	1a	.
.	2d	.	.	1r
2G	[2e	2B	2g	.
=46	=46	=46	=46	=46
2A	4e]	2c	2e	0r
.	4e	.	.	.
2A	2.f	2c	1a	.
1B-	.	1d	.	.
.	4e	.	.	.
.	2d	.	2g	.
=47	=47	=47	=47	=47
1A	2c	1e	2a	2r
.	1A	.	1a	1cc
1r	.	2r	.	.
.	2d	2f	2a	2dd
=48	=48	=48	=48	=48
0r	2c	2g	1.cc	1.ee
.	4A	1a	.	.
.	4B	.	.	.
.	4c	.	.	.
.	4d	.	.	.
.	2e	2g#	2b	2ee
=49	=49	=49	=49	=49
0r	2A	2a	2cc	2ee
.	2c	2g	2cc	2ee
.	1d	1f	2a	1ff
.	.	.	2b	.
=50	=50	=50	=50	=50
2r	1c	2g	1cc	1ee
1A	.	1e	.	.
.	1r	.	2.a	2.cc
2A	.	2e	.	.
.	.	.	4a	4cc
=51	=51	=51	=51	=51
2d	2r	2f#	2a	2dd
2d	1d	2f#	2a	2dd
1G	.	[1g	1b	2dd
.	2d	.	.	[2gg
=52	=52	=52	=52	=52
2.c	2e	1g]	2cc	4gg]
.	.	.	.	4ff
.	2e	.	2g	4ee
4B-	.	.	.	4dd
4A	2e	2r	[1a	4cc
4G	.	.	.	4b-
4F	[2f	2c	.	4a
4E	.	.	.	4g
=53	=53	=53	=53	=53
1D	2f]	2d	0a]	4f
.	.	.	.	4d
.	4e	2.a	.	1dd
.	4d	.	.	.
1A	2e	.	.	.
.	.	4g	.	.
.	2e	2e	.	2cc#
=54	=54	=54	=54	=54
0D	1d	2.f	2r	1dd
.	.	.	2d	.
.	.	4g	.	.
.	2r	1a	2.f	2r
.	2d	.	.	2dd
.	.	.	4g	.
=55	=55	=55	=55	=55
0r	2f	0r	2a	2dd
.	2g	.	2b	2dd
.	1a	.	1cc	2ff
.	.	.	.	[2ee
=56	=56	=56	=56	=56
1r	2g	1r	2b	2ee]
.	2f	.	2a	2dd
2r	1e	2r	2b	1ee
2A	.	2e	2a	.
=57	=57	=57	=57	=57
2c	0r	2e	2a	0r
2d	.	2f#	2a	.
1e	.	1g	2cc	.
.	.	.	[2b	.
=58	=58	=58	=58	=58
2d	1r	2f	2b]	0r
2c	.	2e	1a	.
1B	2r	1d	.	.
.	2d	.	2g#	.
=59	=59	=59	=59	=59
1A	2e	1c	1a	2r
.	2f#	.	.	2a
1r	2g	2r	1e	2b
.	2a	2A	.	2cc#
=60	=60	=60	=60	=60
0r	1d	2.f	2.a	2.dd
.	.	4e	4g	4cc
.	1r	2d	2f	4b
.	.	.	.	4a
.	.	2c	2e	[2a
=61	=61	=61	=61	=61
2r	2r	1B	1d	2a]
2d	2d	.	.	2g#
2c#	2e	2A	2r	1a
2d	2f#	[2d	2a	.
=62	=62	=62	=62	=62
2.G	2.g	2d]	1b-	1r
.	.	1g	.	.
8A	4f	.	.	.
8B-	.	.	.	.
2c	2e	.	[1a	2r
2d	[2d	2f	.	2dd
=63	=63	=63	=63	=63
1A	2d]	2e	2a]	2ee
.	2c#	2A	2a	2ff#
[1G	1d	2r	[1b-	2.gg
.	.	2d	.	.
.	.	.	.	4ff
=64	=64	=64	=64	=64
1G]	2r	2.g	1b-]	4ee
.	.	.	.	4dd
.	2G	.	.	1dd
.	.	4f	.	.
1A	2c	1e	2.a	.
.	2A	.	.	2cc#
.	.	.	4g	.
=65	=65	=65	=65	=65
1D	1A	1d	1f#	1dd
1r	1r	1r	1r	1r
=66	=66	=66	=66	=66
0D	0r	0d	0a	0ff
=67	=67	=67	=67	=67
1A	0r	1c	1a	1ee
1A	.	2e	1a	1cc
.	.	[2f	.	.
=68	=68	=68	=68	=68
1.B-	0r	4f]	1.f	1.dd
.	.	4e	.	.
.	.	4d	.	.
.	.	4c	.	.
.	.	2d	.	.
2B-	.	2d	2g	2dd
=69	=69	=69	=69	=69
0A	1r	1e	1a	1cc
.	1A	1a	1cc	1ee
=70	=70	=70	=70	=70
0r	1.e	1.g#	1.b	1.ee
.	2e	2g#	2b	2ee
=71	=71	=71	=71	=71
0r	1f	2a	1a	2cc
.	.	2d	.	2.dd
.	1e	4e	1g	.
.	.	4f	.	4cc#
.	.	[2g	.	2cc#
=72	=72	=72	=72	=72
0r	0d	2g]	0a	[0dd
.	.	4f	.	.
.	.	4e	.	.
.	.	1f#	.	.
=73	=73	=73	=73	=73
1.D	1.d	2r	2r	0dd]
.	.	1f#	1a	.
2D	2d	2f#	2a	.
=74	=74	=74	=74	=74
1G	1d	1g	1b-	0r
1F	2f	1c	2a	.
.	[2f	.	[2a	.
=75	=75	=75	=75	=75
1.B-	4f]	1.d	2a]	0r
.	4e	.	.	.
.	4d	.	4g	.
.	4c	.	4f	.
.	2d	.	2g	.
2B-	2d	2d	2g	.
=76	=76	=76	=76	=76
1A	1c#	1e	1a	1r
1F	2r	1f	2r	1a
.	2c	.	2a	.
=77	=77	=77	=77	=77
1D	1d	1a	1f	1dd
1A	1e	1a	2e	1cc
.	.	.	[2a	.
=78	=78	=78	=78	=78
2.D	2.d	2.f	4a]	0ff
.	.	.	4g	.
.	.	.	4f	.
4E	8c	8e	4g	.
.	8B	8d	.	.
2.F	4A	2c	4a	.
.	4G	.	4b	.
.	4A	[2A	[2cc	.
4G	4B	.	.	.
=79	=79	=79	=79	=79
1A	1c	4A]	4cc]	0ee
.	.	4B	4b	.
.	.	4c	1a	.
.	.	4d	.	.
1E	1B	1e	.	.
.	.	.	2g#	.
=80	=80	=80	=80	=80
[0A	[0A	[0c#	[0a	[0ee
=81	=81	=81	=81	=81
0A]	0A]	0c#]	0a]	0ee]
*-	*-	*-	*-	*-
!!!CDT: 1525/^1526/-1594/2/2
!!!OCY: Italia
!!!AGN: Mass (Parody)
!!!AST: renaissance, vocal
!!!ASW: Motet (Jacquet)
!!!PWK: Masses, Book 2
!!!RNB: Cadence finals: A
!!!YOR: Le Opere Complete, v. 4, p. 91
!!!YOO: Rome, Italy: Fratelli Scalera
!!!END: 1992//
!!!EED: John Miller
!!!YEC: Copyright 2000, John Miller
!!!YEN: United States of America
!!!YEM: Rights to all derivative electronic formats reserved.
!!!YEM: Refer to licensing agreement for further details.
!!!YEM: This file must be accompanied by the licensing agreement.
!!!YEM: A copy of the licensing agreement may be found at http://www.music-cog.ohio-state.edu/HumdrumDatabases/Palestrina/license.txt
!!!EMD: converted to Humdrum by Bret Aarden
